X:1
T:Title
%%score { ( 1 3 5 ) | ( 2 4 ) }
L:1/8
M:4/4
K:Eb
V:1 treble nm="Grand Piano"
V:3 treble 
V:5 treble 
V:2 bass 
V:4 bass 
V:1
 z4 z2[Q:1/4=100] [EG][FA] | [GB][GB][_G=A][=GB] [_Ac] [GB]2 G | B2 =A2 _A2 [DF][EG] | %3
 [FA][GB][Ac][FAd] [EAc] [EGB]2 [B,EG] | [B,DA]2 [B,EG]2 [B,DF]2 [B,EG][B,FA] | %5
 [GB][GB][_G=A][=GB] [_Ac] [GB]2 [GB] | e2 d2 z4 | [Ac][Ac][Ad][Ad] [Ge] [EGB]2 [CFA] | %8
[M:3/4] [B,EG]2 [A,DF]2 [G,E]2 |[M:1/4] [Ge][Gc] |[M:4/4] d6 z2 | B6 z2 | A6 z2 | %13
 z EEE E2 [Ge][Gc] | d-[Ad-][Ad-][Ad-] ddcd | B6 z2 | %16
[M:9/8] [EAc][EAc][Ad] [Ad][Ge][EGB]- [EGB]2 [CFA][Q:1/4=97][Q:1/4=94][Q:1/4=91][Q:1/4=88][Q:1/4=84][Q:1/4=81][Q:1/4=78] | %17
[M:3/4] [B,EG]2 [A,DF]2 [G,E]2 |] %18
V:2
 z4 z2 [E,B,][E,B,] | [E,E][E,E][E,E][E,E] [E,E] [E,E]2 [E,B,E] | %2
 [G,B,E]2 [_G,CE]2 [F,B,D]2 [B,,B,][B,,B,] | [B,,B,][B,,B,][B,,B,]B,, E, E,2 E, | %4
 F,2 E,2 B,,2 E,E, | [E,E][E,E][E,E][E,E] [E,E] [E,E]2 [E,E] | B,-[G,B,]FB,, [E,B,]2 [E,E][E,E] | %7
 [A,E][A,E][F,B,][F,B,] [E,B,] E,2 A,, |[M:3/4] B,,2 B,,2 E,2 |[M:1/4] [E,B,][G,E] | %10
[M:4/4] [F,B,][F,B,][B,,B,][B,,B,] [F,B,]2 B,,B,, | E,E,B,,B,, E,2 E,[E,B,E] | %12
 [F,B,D][F,B,][D,B,][C,B,] [B,,B,]2 [B,,B,][B,,B,] | [E,B,E][G,B,]B,[G,B,] [E,B,]2 [E,B,][G,E] | %14
 [F,B,][F,B,][B,,B,][F,B,][K:treble] [B,F]2 [B,DA][B,FA] | E,E,B,,B,, E,2 E,E, | %16
[M:9/8] A,A,[F,B,] [F,B,][E,B,]E,- E,2 A,, |[M:3/4] B,,2 B,,2 E,2 |] %18
V:3
 x8 | x8 | x8 | x8 | x8 | x8 | GE z A [Ge]2 [GB][GB] | x8 |[M:3/4] x6 |[M:1/4] x2 | %10
[M:4/4] AAAA z d[DAc][FAd] | [EG][EG][DA][DA] [EG]2 [EGB]G | z DFE z F[EG][FA] | G6 z2 | %14
 .A2 z2 A2 z2 | [EG][EG][DA][DA] [EG]2 [EGB][EGB] |[M:9/8] x9 |[M:3/4] x6 |] %18
V:4
 x8 | x8 | x8 | x8 | x8 | x8 | .E,2 B,2 z4 | x8 |[M:3/4] x6 |[M:1/4] x2 |[M:4/4] x8 | x8 | x8 | %13
 x8 | x4[K:treble] x4 | x8 |[M:9/8] x9 |[M:3/4] x6 |] %18
V:5
 x8 | x8 | x8 | x8 | x8 | x8 | x8 | x8 |[M:3/4] x6 |[M:1/4] x2 |[M:4/4] z4 A2 z2 | x8 | z4 D2 z2 | %13
 x8 | x8 | x8 |[M:9/8] x9 |[M:3/4] x6 |] %18

